X: 44
T:Ymdaith Castell Coch
T:Powys Castle March
M:C
L:1/8
Q:130
S:Mary Richards' (1787-1877) Collection
R:March
A:Wales
Z:brian_martin12345@yahoo.com
K:G
B2B>BB2 (3cde|d2B>BB2 (3BcB|A2E2A2 (3ABA|G2B>Gd2d>c|!
B2B>BB2 (3cde|d2d>dd2 (3d^cB|A2d>ef2e2|d2d>dd4:||!
c2c>ca2a>g|f>ed>cB2B2|d2d>dg2g>a|b2c'>ba4|!
f2f>ed2d>c|B>Ac>ed2d2|g>Bc>e d>cA>B|G2G>GG4:||
